X:269
T:Larry's Favourite
R:reel
C:Paddy O'Brien (Nenagh) (1922-1991)
D:Sanctuary Sessions
Z:id:hn-reel-269
M:C|
K:Ador
EAAG A2Bd|eA~A2 BAGE|G2DG EGDE|GABd edBG|
EAAG A2Bd|eA~A2 BAGE|GABd gedB|1 (3ABc BG ABAG:|2 (3ABc BG ABcd||
|:eaag egfg|eA~A2 edBe|d2BG AGEF|GABd g2fg|
eaag egfg|eA~A2 BAGE|GABd gedB|(3ABc BG ABcd:|
|:eaag a2ga|bg~g2 abge|dggf g2eg|dB~B2 GABd|
eaag a2ga|bg~g2 abge|dB~B2 gedB|1 (3ABc BG ABcd:|2 (3ABc BG ABAG||

